icons/svg/shields/h_rapids_shield.svg

<?xml version="1.0" encoding="UTF-8" standalone="no"?>
<!-- Created with Inkscape (http://www.inkscape.org/) -->

<svg
   xmlns:dc="http://purl.org/dc/elements/1.1/"
   xmlns:cc="http://creativecommons.org/ns#"
   xmlns:rdf="http://www.w3.org/1999/02/22-rdf-syntax-ns#"
   xmlns:svg="http://www.w3.org/2000/svg"
   xmlns="http://www.w3.org/2000/svg"
   xmlns:sodipodi="http://sodipodi.sourceforge.net/DTD/sodipodi-0.dtd"
   xmlns:inkscape="http://www.inkscape.org/namespaces/inkscape"
   version="1.0"
   width="16"
   height="16"
   id="svg2"
   sodipodi:version="0.32"
   inkscape:version="0.91 r"
   sodipodi:docname="h_rapids_shield.svg"
   inkscape:output_extension="org.inkscape.output.svg.inkscape">
  <metadata
     id="metadata10">
    <rdf:RDF>
      <cc:Work
         rdf:about="">
        <dc:format>image/svg+xml</dc:format>
        <dc:type
           rdf:resource="http://purl.org/dc/dcmitype/StillImage" />
        <cc:license
           rdf:resource="http://web.resource.org/cc/PublicDomain" />
        <dc:language>en</dc:language>
        <dc:title />
      </cc:Work>
    </rdf:RDF>
  </metadata>
  <sodipodi:namedview
     inkscape:window-height="739"
     inkscape:window-width="1332"
     inkscape:pageshadow="2"
     inkscape:pageopacity="0.0"
     guidetolerance="10.0"
     gridtolerance="10.0"
     objecttolerance="10.0"
     borderopacity="1.0"
     bordercolor="#666666"
     pagecolor="#ffffff"
     id="base"
     showgrid="false"
     inkscape:zoom="11.313708"
     inkscape:cx="-3.0594968"
     inkscape:cy="0.53620339"
     inkscape:window-x="34"
     inkscape:window-y="1024"
     inkscape:current-layer="svg2"
     inkscape:window-maximized="1" />
  <defs
     id="defs4">
    <inkscape:perspective
       sodipodi:type="inkscape:persp3d"
       inkscape:vp_x="0 : 290 : 1"
       inkscape:vp_y="0 : 1000 : 0"
       inkscape:vp_z="580 : 290 : 1"
       inkscape:persp3d-origin="290 : 193.33333 : 1"
       id="perspective12" />
    <style
       type="text/css"
       id="style6">
   
    .fil0 {fill:#EF7900}
   
  </style>
    <inkscape:perspective
       id="perspective6807"
       inkscape:persp3d-origin="29.116032 : 19.410688 : 1"
       inkscape:vp_z="58.232063 : 29.116032 : 1"
       inkscape:vp_y="0 : 1000 : 0"
       inkscape:vp_x="0 : 29.116032 : 1"
       sodipodi:type="inkscape:persp3d" />
    <inkscape:perspective
       id="perspective6954"
       inkscape:persp3d-origin="290 : 193.33333 : 1"
       inkscape:vp_z="580 : 290 : 1"
       inkscape:vp_y="0 : 1000 : 0"
       inkscape:vp_x="0 : 290 : 1"
       sodipodi:type="inkscape:persp3d" />
    <inkscape:perspective
       id="perspective2541"
       inkscape:persp3d-origin="240 : 160 : 1"
       inkscape:vp_z="480 : 240 : 1"
       inkscape:vp_y="0 : 1000 : 0"
       inkscape:vp_x="0 : 240 : 1"
       sodipodi:type="inkscape:persp3d" />
    <inkscape:perspective
       id="perspective2750"
       inkscape:persp3d-origin="215 : 143.33333 : 1"
       inkscape:vp_z="430 : 215 : 1"
       inkscape:vp_y="0 : 1000 : 0"
       inkscape:vp_x="0 : 215 : 1"
       sodipodi:type="inkscape:persp3d" />
    <inkscape:perspective
       id="perspective3730"
       inkscape:persp3d-origin="88.929146 : 101.19778 : 1"
       inkscape:vp_z="177.85829 : 151.79668 : 1"
       inkscape:vp_y="0 : 1000 : 0"
       inkscape:vp_x="0 : 151.79668 : 1"
       sodipodi:type="inkscape:persp3d" />
  </defs>
  <path
     sodipodi:type="inkscape:offset"
     inkscape:radius="1.1408408"
     inkscape:original="M 12.9375 3.7949219 C 12.290482 3.8125869 11.588782 4.2640759 10.955078 4.2949219 C 10.329862 4.3119916 9.6734104 3.9193556 9.2148438 3.9160156 C 8.767028 3.9078025 8.3229475 3.969682 7.9375 4.2421875 C 7.5618821 4.4686804 7.4648175 4.5742339 7.4550781 4.6328125 C 7.3042182 4.7737794 7.1628834 4.9592794 7.0742188 5.2734375 C 6.9229462 5.7609185 7.1749323 6.3900018 6.9902344 6.9375 C 6.7894144 7.4752887 6.4679199 7.9503126 6.2675781 8.5019531 C 6.2158559 8.6541652 6.1840538 8.774147 6.1621094 8.8789062 C 5.9952593 8.838357 5.8280173 8.8065176 5.6582031 8.8027344 C 5.6393641 8.802315 5.6204385 8.8024861 5.6015625 8.8027344 C 5.5820775 8.8030044 5.5644499 8.8036606 5.5449219 8.8046875 C 4.9285673 8.8305802 4.3113467 9.2682274 3.6816406 9.2832031 C 3.0625005 9.2864643 2.4633364 8.8541585 1.8183594 8.8671875 C 1.5278482 8.8751192 1.2270161 8.9708485 0.92578125 9.0761719 L 0.92578125 10.291016 C 1.2382635 10.180288 1.550141 10.077513 1.8515625 10.070312 C 2.4965378 10.057232 3.0937502 10.487675 3.7128906 10.484375 C 4.342595 10.469345 4.9598151 10.031699 5.5761719 10.005859 C 6.2011775 9.9774684 6.8047259 10.346742 7.3886719 10.326172 C 7.3998589 10.325672 7.410745 10.325019 7.421875 10.324219 L 7.421875 9.1191406 C 7.419875 9.1193399 7.4180056 9.1189592 7.4160156 9.1191406 C 7.4642736 8.9959508 7.6098568 8.6433025 7.6191406 8.6171875 C 7.8194829 8.0655475 7.9339464 7.8424762 8.1347656 7.3046875 C 8.3194637 6.7571887 8.2158996 6.0676055 8.3671875 5.5800781 C 8.4737128 5.4622313 8.5754243 5.3673314 8.671875 5.2832031 C 8.8284964 5.1946031 9.0052254 5.1152038 9.2460938 5.1171875 C 9.7046108 5.1205275 10.365018 5.5131633 10.990234 5.4960938 C 11.623938 5.4652477 12.323685 5.0157118 12.970703 4.9980469 C 13.610342 4.9849789 14.202718 5.4083832 14.816406 5.4121094 L 14.816406 4.2089844 C 14.810606 4.2091913 14.804628 4.2088464 14.798828 4.2089844 C 14.199038 4.2122444 13.620118 3.8083209 12.998047 3.7949219 C 12.977977 3.7944887 12.95765 3.7945136 12.9375 3.7949219 z M 10.394531 6.1875 C 8.5382788 6.1481162 8.6169819 7.6171829 8.265625 13.123047 L 14.816406 13.123047 L 14.816406 6.4648438 C 14.082377 6.4445987 12.587979 6.4248927 12.017578 6.4257812 C 11.353966 6.2871188 10.822897 6.1965886 10.394531 6.1875 z M 5.4472656 11.242188 C 5.4277806 11.242487 5.4081999 11.243094 5.3886719 11.244141 C 4.7723165 11.270031 4.1550967 11.707686 3.5253906 11.722656 C 2.9062508 11.725956 2.3090395 11.293611 1.6640625 11.306641 C 1.4233535 11.313241 1.1751382 11.380351 0.92578125 11.462891 L 0.92578125 12.677734 C 1.1864067 12.589524 1.4457442 12.515766 1.6972656 12.509766 C 2.3422409 12.496686 2.9394532 12.927128 3.5585938 12.923828 C 4.1882984 12.908798 4.8055183 12.471153 5.421875 12.445312 C 6.0468803 12.416923 6.6504289 12.788148 7.234375 12.767578 C 7.245562 12.767078 7.2564481 12.764472 7.2675781 12.763672 L 7.2675781 11.558594 C 7.2454461 11.560794 7.2235249 11.5615 7.2011719 11.5625 C 6.6354742 11.582383 6.0513163 11.233986 5.4472656 11.242188 z "
     style="opacity:0.86759578;fill:#ffffff;fill-opacity:1;fill-rule:evenodd"
     id="path4159"
     d="m 12.90625,2.6542969 c -0.577325,0.015762 -1.005941,0.1901052 -1.345703,0.3105469 -0.332734,0.1179501 -0.573075,0.1817137 -0.646485,0.1875 -0.06708,2.816e-4 -0.268556,-0.036661 -0.542968,-0.125 C 10.09369,2.9380419 9.7744463,2.7834129 9.2304688,2.7773438 8.6662223,2.767573 7.9378777,2.8497669 7.2851562,3.3085938 7.1047134,3.4194826 6.9541637,3.5168124 6.8164062,3.6347656 6.6603528,3.7683846 6.417332,3.9205152 6.3300781,4.4453125 L 6.6757812,3.7988281 C 6.4223042,4.0356828 6.126904,4.4515283 5.9824219,4.9511719 5.8206893,5.488363 5.8864176,5.8953119 5.90625,6.1660156 c 0.019702,0.2689266 0.00439,0.393939 0.00391,0.3984375 C 5.807074,6.8316501 5.5894868,7.2591406 5.390625,7.6894531 4.8987242,7.732918 4.5033965,7.8748254 4.2226562,7.9785156 3.9220193,8.0895546 3.7276101,8.1355731 3.6640625,8.1386719 3.6165812,8.1370764 3.4367151,8.0975559 3.1308594,7.9921875 2.8181804,7.8844685 2.3792751,7.7147581 1.7949219,7.7265625 a 1.1409549,1.1409549 0 0 0 -0.00781,0 C 1.2677371,7.7407427 0.87013903,7.8876572 0.54882812,8 a 1.1409549,1.1409549 0 0 0 -0.76367187,1.0761719 l 0,1.2148441 a 1.1409549,1.1409549 0 0 0 0.16210938,0.583984 1.1409549,1.1409549 0 0 0 -0.16210938,0.587891 l 0,1.214843 a 1.1409549,1.1409549 0 0 0 1.50585935,1.080078 c 0.2239472,-0.0758 0.3808318,-0.105805 0.4296875,-0.107421 0.061717,-0.0013 0.2444392,0.03869 0.546875,0.142578 0.3024358,0.103886 0.7209807,0.274554 1.296875,0.271484 a 1.1409549,1.1409549 0 0 0 0.021484,0 C 4.15597,14.050847 4.5765784,13.875757 4.890625,13.759766 5.2046716,13.643774 5.4139561,13.588235 5.46875,13.585938 a 1.1409549,1.1409549 0 0 0 0.00586,0 c 0.070702,-0.0032 0.2581617,0.02817 0.5546875,0.113281 0.2965257,0.08511 0.6989993,0.228256 1.2460937,0.208984 a 1.1409549,1.1409549 0 0 0 0.00977,0 c 0.1548494,-0.0069 0.1769734,-0.01395 0.064453,-0.0059 a 1.1409549,1.1409549 0 0 0 0.074219,-0.0098 1.1409549,1.1409549 0 0 0 0.8417969,0.371094 l 6.550781,0 a 1.1409549,1.1409549 0 0 0 1.140625,-1.140625 l 0,-6.6582032 A 1.1409549,1.1409549 0 0 0 15.828125,5.9394531 1.1409549,1.1409549 0 0 0 15.957031,5.4121094 l 0,-1.203125 a 1.1409549,1.1409549 0 0 0 -1.164062,-1.140625 c -0.04181,2.272e-4 -0.220595,-0.03726 -0.515625,-0.1386719 -0.29503,-0.101412 -0.703736,-0.2635403 -1.253906,-0.2753906 -0.03763,-8.122e-4 -0.07463,-7.041e-4 -0.109376,0 a 1.1409549,1.1409549 0 0 0 -0.0078,0 z m -5.59375,5.328125 0.00195,0.00195 a 1.1409549,1.1409549 0 0 0 -0.00586,0 c 0.2104412,-0.02097 0.213926,-0.021098 0.00391,-0.00195 z" />
</svg>

<svg width="16" height="16" viewBox="0 0 16 16" fill="none" xmlns="http://www.w3.org/2000/svg">
<g clip-path="url(#clip0)">
<path opacity="0.867596" fill-rule="evenodd" clip-rule="evenodd" d="M12.9063 2.65432C12.3289 2.67008 11.9003 2.84442 11.5605 2.96486C11.2278 3.08281 10.9875 3.14658 10.9141 3.15236C10.847 3.15265 10.6455 3.1157 10.3711 3.02736C10.0937 2.93806 9.77445 2.78343 9.23047 2.77736C8.66622 2.76759 7.93788 2.84979 7.28516 3.30861C7.10471 3.4195 6.95417 3.51683 6.81641 3.63479C6.66035 3.7684 6.41733 3.92054 6.33008 4.44533L6.67578 3.79885C6.42231 4.0357 6.12691 4.45155 5.98242 4.95119C5.82069 5.48838 5.88642 5.89533 5.90625 6.16604C5.92595 6.43496 5.91064 6.55997 5.91016 6.56447C5.80708 6.83167 5.58949 7.25916 5.39063 7.68947C4.89873 7.73294 4.5034 7.87485 4.22266 7.97854C3.92202 8.08957 3.72761 8.13559 3.66406 8.13869C3.61658 8.1371 3.43672 8.09758 3.13086 7.99221C2.81818 7.88449 2.37928 7.71478 1.79492 7.72658C1.79232 7.72657 1.78972 7.72657 1.78711 7.72658C1.26774 7.74076 0.87014 7.88768 0.548829 8.00002C0.325737 8.07819 0.132432 8.22372 -0.00437036 8.4165C-0.141173 8.60929 -0.214718 8.8398 -0.214843 9.07619V10.291C-0.214441 10.4968 -0.158428 10.6985 -0.0527331 10.875C-0.159109 11.0526 -0.215148 11.2559 -0.214843 11.4629V12.6778C-0.214692 12.8588 -0.171447 13.0373 -0.0886823 13.1983C-0.00591785 13.3594 0.113989 13.4984 0.261127 13.6039C0.408264 13.7095 0.578407 13.7785 0.757491 13.8052C0.936574 13.832 1.11946 13.8157 1.29102 13.7578C1.51496 13.682 1.67185 13.652 1.7207 13.6504C1.78242 13.6491 1.96514 13.6891 2.26758 13.793C2.57002 13.8969 2.98856 14.0675 3.56445 14.0645C3.57162 14.0645 3.57878 14.0645 3.58594 14.0645C4.15597 14.0509 4.57658 13.8758 4.89063 13.7598C5.20467 13.6438 5.41396 13.5883 5.46875 13.586C5.4707 13.586 5.47266 13.586 5.47461 13.586C5.54531 13.5828 5.73277 13.6141 6.0293 13.6992C6.32582 13.7843 6.7283 13.9275 7.27539 13.9082C7.27865 13.9082 7.28191 13.9082 7.28516 13.9082C7.44001 13.9013 7.46214 13.8943 7.34962 13.9023C7.37446 13.8999 7.39921 13.8966 7.42383 13.8925C7.53071 14.0094 7.66075 14.1028 7.80567 14.1667C7.9506 14.2306 8.10724 14.2636 8.26563 14.2636H14.8164C15.1189 14.2635 15.409 14.1433 15.6229 13.9294C15.8367 13.7155 15.9569 13.4255 15.957 13.123V6.46479C15.9568 6.28188 15.9126 6.10171 15.8281 5.93947C15.9129 5.77662 15.9571 5.59572 15.957 5.41213V4.209C15.957 4.05724 15.9267 3.90699 15.8679 3.76708C15.8091 3.62716 15.723 3.50038 15.6146 3.39416C15.5062 3.28794 15.3777 3.20442 15.2366 3.14848C15.0955 3.09254 14.9447 3.06531 14.793 3.06838C14.7512 3.06861 14.5724 3.03112 14.2773 2.92971C13.9823 2.8283 13.5736 2.66617 13.0234 2.65432C12.9858 2.6535 12.9488 2.65361 12.9141 2.65432C12.9115 2.65431 12.9089 2.65431 12.9063 2.65432H12.9063ZM7.3125 7.98244L7.31445 7.98439C7.3125 7.98439 7.31054 7.98439 7.30859 7.98439C7.51903 7.96342 7.52252 7.96329 7.3125 7.98244Z" fill="white"/>
</g>
<defs>
<clipPath id="clip0">
<path d="M0 0H16V16H0V0Z" fill="white"/>
</clipPath>
</defs>
</svg>
